Improvs/dist/images/ryan_template/step3.svg

<svg width="20" height="20" viewBox="0 0 20 20" fill="none" xmlns="http://www.w3.org/2000/svg">
<path d="M9.6928 0.219185C9.2878 0.226685 8.8828 0.271685 8.4741 0.331685H8.4441C4.44658 0.984185 1.21408 4.12668 0.404082 8.1129C0.156582 9.24539 0.171582 10.3029 0.329082 11.3454C0.329082 11.3454 0.329082 11.3604 0.329082 11.3679C0.569082 13.1229 2.86033 13.8992 4.14658 12.6054C5.06908 11.6754 6.43408 11.6754 7.35658 12.6054C8.2791 13.5279 8.2791 14.8929 7.35658 15.8154C6.06658 17.0979 6.83158 19.3854 8.5941 19.6329C8.5941 19.6329 8.6091 19.6254 8.6166 19.6329C9.6441 19.7904 10.7016 19.7979 11.8266 19.5579C11.8341 19.5579 11.8341 19.5579 11.8491 19.5579C15.8391 18.8079 18.9741 15.5004 19.6303 11.5179V11.4879C20.4778 5.75043 16.2853 0.747935 10.8403 0.237935C10.4503 0.192935 10.0603 0.177935 9.6628 0.185435L9.6928 0.219185ZM9.7153 1.71919C10.0528 1.70419 10.3903 1.71169 10.7203 1.74169C15.3628 2.16169 18.8953 6.39919 18.1678 11.3042C17.6128 14.6567 14.9203 17.4842 11.5753 18.0992H11.5453C10.5853 18.3017 9.7003 18.3017 8.8003 18.1667C8.1778 18.0842 7.90033 17.4017 8.3953 16.8992C9.8653 15.4217 9.8653 13.0292 8.3953 11.5554C6.91783 10.0779 4.52533 10.0779 3.04783 11.5554C2.54533 12.0504 1.85533 11.7654 1.78033 11.1504C1.63783 10.2504 1.64533 9.3654 1.84783 8.4054C2.53033 5.03794 5.28283 2.33794 8.6428 1.79044C8.9878 1.73044 9.3328 1.70794 9.6741 1.69669L9.7153 1.71919ZM8.4966 3.24169C7.66408 3.24169 6.99658 3.90919 6.99658 4.74169C6.99658 5.56669 7.66408 6.24168 8.4966 6.24168C9.3216 6.24168 9.9966 5.56669 9.9966 4.74169C9.9966 3.90919 9.3216 3.24169 8.4966 3.24169ZM13.7466 4.74169C12.9141 4.74169 12.2466 5.40918 12.2466 6.24168C12.2466 7.06668 12.9141 7.74168 13.7466 7.74168C14.5716 7.74168 15.2466 7.06668 15.2466 6.24168C15.2466 5.40918 14.5716 4.74169 13.7466 4.74169ZM4.74658 6.24168C3.91408 6.24168 3.24658 6.90918 3.24658 7.74168C3.24658 8.5667 3.91408 9.2417 4.74658 9.2417C5.57158 9.2417 6.24658 8.5667 6.24658 7.74168C6.24658 6.90918 5.57158 6.24168 4.74658 6.24168ZM15.2466 9.9917C14.4141 9.9917 13.7466 10.6592 13.7466 11.4917C13.7466 12.3167 14.4141 12.9917 15.2466 12.9917C16.0716 12.9917 16.7466 12.3167 16.7466 11.4917C16.7466 10.6592 16.0716 9.9917 15.2466 9.9917ZM12.2466 13.7417C11.4141 13.7417 10.7466 14.4092 10.7466 15.2417C10.7466 16.0667 11.4141 16.7417 12.2466 16.7417C13.0716 16.7417 13.7466 16.0667 13.7466 15.2417C13.7466 14.4092 13.0716 13.7417 12.2466 13.7417Z" fill="#161613"/>
</svg>

<svg width="20" height="20" fill="none" xmlns="http://www.w3.org/2000/svg"><path d="M9.693.22a9.54 9.54 0 00-1.219.112h-.03c-3.997.652-7.23 3.795-8.04 7.78-.247 1.133-.232 2.19-.075 3.233v.023c.24 1.755 2.531 2.531 3.818 1.237.922-.93 2.287-.93 3.21 0 .922.923.922 2.288 0 3.21-1.29 1.283-.525 3.57 1.237 3.818 0 0 .015-.008.023 0a8.766 8.766 0 003.21-.075h.022c3.99-.75 7.125-4.058 7.781-8.04v-.03C20.478 5.75 16.285.748 10.84.238c-.39-.045-.78-.06-1.177-.053l.03.034zm.022 1.5a7.468 7.468 0 011.005.022c4.643.42 8.175 4.657 7.448 9.562-.555 3.353-3.248 6.18-6.593 6.795h-.03a7.542 7.542 0 01-2.745.068c-.622-.083-.9-.765-.405-1.268a3.789 3.789 0 000-5.344 3.78 3.78 0 00-5.347 0c-.503.495-1.193.21-1.268-.405a7.38 7.38 0 01.068-2.745C2.53 5.038 5.283 2.338 8.643 1.79c.345-.06.69-.082 1.031-.093l.041.022zM8.497 3.241c-.833 0-1.5.667-1.5 1.5a1.5 1.5 0 101.5-1.5zm5.25 1.5c-.833 0-1.5.667-1.5 1.5a1.5 1.5 0 101.5-1.5zm-9 1.5c-.833 0-1.5.667-1.5 1.5a1.5 1.5 0 101.5-1.5zm10.5 3.75c-.833 0-1.5.667-1.5 1.5a1.5 1.5 0 101.5-1.5zm-3 3.75c-.833 0-1.5.667-1.5 1.5a1.5 1.5 0 101.5-1.5z" fill="#161613"/></svg>
